X: 6
T: Chanter's Song
R: polka
M: 2/4
L: 1/8
K: Emix
EE BA/F/|EE dc/d/|eB BA/F/|dc/d/ BA/F/|
EE BA/F/|EE dc/d/|eB BA/F/|E2 E2:|
|:B>c dc/d/|B/A/B/c/ dc/d/|eB BA/F/|dc/d/ BA/F/|
EE BA/F/|EE dc/d/|eB BA/F/|E2 E2:|


Tune 2082	Setting 2082

